!!!!SEGMENT: pl-sa--l-1636--096_anonim--ave-mundi-spes-maria.krn
!!!cenid: 17xx:803
!!!COM: Anonim
!!!COM-rismid: pe30004985
!!!CDT:
!!!CNT:
!!!OTL: Ave Mundi spes Maria
!!!PDT:
!!!AGN: Sacred
!!!SMS-siglum: PL-SA
!!!SMS-shelfmark: L 1636
!!!SMS-shelfwork: 096 W
!!!SMS-variant:
!!!SMS-altvar:
!!!NIFC-rismid: 1001087450
!!!URL-scan: http://repozytorium.nifc.pl/skany/pl-sa-nut--l1636
!!!ONB-nifc: 45r, skan 0040, s. 5-6
!!!AIN: 1 empty
!!!key:
**kern	**kern
*part1	*part1
*staff2	*staff1
*Iempty	*Iempty
*I"	*I"
*I'keyb	*I'keyb
*clefF4	*clefC1
*k[]	*k[]
*G:	*G:
*M2/2	*M2/2
*met(c|)	*met(c|)
=1	=1
*	*^
*2\right	*2\right	*2\right
!	!LO:TX:b:i:t=Ave Mundi Spes Maria	!
2CC/ 2C	2g/ 2cc	4ryy
.	.	4ryy
!LO:TX:a:t=P:problem=4\right&colon; global	!LO:TX:a:t=P:problem=4\right&colon; global	!
4G\	4g/ 4b	4ryy
!	!LO:TX:a:t=P:problem=8\right&colon; global	!
4DD/ 4D	4a/	8f#X\L
.	.	8e\J
=2	=2	=2
2GG/	2g/	2d\
!LO:TX:a:t=P:problem=8\right&colon; global	!L	!
8F\L	8a/L	4f\
8D\J	8b/J	.
!LO:TX:a:t=P:problem=mixed beam	!	!
8C/L	4cc/	8e\L
8F\J	.	8a\J
=3	=3	=3
!	!LO:N:vis=2	!
4G\	4dd/	8cc\L
!	!LO:TX:a:t=P:problem=16\right&colon; global	!
.	.	16b\L
.	.	16a\JJ
4GG/	4b/	8g\L
.	.	8f\J
2CC/ 2C	2e/ 2g 2cc	4ryy
.	.	4ryy
=4	=4	=4
!	!	!LO:N:vis=4
2G\	2g/	2d/
4F\	4a/	4f\
4D/	4b/	8g\L
.	.	8f\J
=5	=5	=5
!LO:TX:a:t=P:problem=mixed beam	!	!
8C/L	2cc/	8e\L
8F\	.	8a\
!LO:TX:a:t=P:problem=;nuta zamazana	!	!
8E\yy	.	8g\
!LO:TX:a:t=P:problem=;nuta zamazana	!	!
8F\Jyy	.	8a\J
!LO:TX:a:t=P:problem=;nuta zamazana	!L	!
8G\Lyy	4b/	4g\
8E\	.	.
8F\	4cc/	4a\
8D\J	.	.
=6	=6	=6
!	!LO:N:vis=2	!
4G\	4dd/	8cc\L
.	.	16b\
.	.	16a\J
4GG/	4b/	8g\L
.	.	8f\J
2C/	2e/ 2g/ 2cc/	4ryy
.	.	4ryy
!LO:TX:a:t=P:problem=za kreską taktową kropki	!	!
!!LO:LB:g=original
=7	=7	=7
4CC/ 4C	4e/ 4g 4cc	4ryy
4GG/ 4G	4b/	4g\
4D/	4a/	4f#X\
4DD/	4dd/	4a\
=8	=8	=8
2AA/ 2A	8cc#X/L	[<4a\
.	8dd/J	.
.	8ee/L	8.a\L]
.	8cc#X/J	.
.	.	16g\Jk
2DD/ 2D	2f#X/ 2a 2dd	4ryy
.	.	4ryy
=9	=9	=9
8G\L	2g/ 2b 2dd	4ryy
8A\	.	.
8B\	.	4ryy
8G\J	.	.
8A\L	4cc/	4a\
8F#X\J	.	.
!LO:TX:a:t=P:problem=mixed beam	!	!
8G\L	4b/	4g\
16BB/L	.	.
16C/JJ	.	.
=10	=10	=10
2DD/ 2D	2a/	2f#X\
!LO:TX:a:t=P:problem=mixed beam	!	!
8G\L	4b/	4g\
8BB/	.	.
8C/	8cc/L	8a\L
8CC/J	8b/J	8g\J
=11	=11	=11
!	!LO:N:vis=2	!
2DD/ 2D	4a/	8g\L
!	!	!LO:TX:a:t=P:problem=# above
.	.	16f#X\L
.	.	16e\JJ
.	4f#X/	8d\L
.	.	8c\J
2GG/ 2BB 2D 2G	2B/ 2d 2g	4ryy
.	.	4ryy
!LO:TX:a:t=P:problem=utwór kończy się kreską z obustronną repetycją	!	!
*	*v	*v
==	==
*-	*-
!!!system-decoration: {(s1,s2)}
!!!RDF**kern: > = above
!!!RDF**kern: < = below
!!!EED: Mateusz Mrugas
!!!EST: 2020-12-09
!!!ENC: Krzysztof Stępień
!!!END: 2020-07-18
